src/pos-icons/bug.svg

<svg height="24" viewBox="0 0 24 24" width="24" xmlns="http://www.w3.org/2000/svg"><path d="m14 12h-4v-2h4m0 6h-4v-2h4m6-6h-2.81c-.45-.78-1.07-1.45-1.82-1.96l1.63-1.63-1.41-1.41-2.17 2.17c-.46-.11-.92-.17-1.42-.17s-.96.06-1.41.17l-2.18-2.17-1.41 1.41 1.62 1.63c-.74.51-1.36 1.18-1.81 1.96h-2.81v2h2.09c-.05.33-.09.66-.09 1v1h-2v2h2v1c0 .34.04.67.09 1h-2.09v2h2.81c1.04 1.79 2.97 3 5.19 3s4.15-1.21 5.19-3h2.81v-2h-2.09c.05-.33.09-.66.09-1v-1h2v-2h-2v-1c0-.34-.04-.67-.09-1h2.09z"/></svg>

<?xml version="1.0" encoding="UTF-8"?><!DOCTYPE svg PUBLIC "-//W3C//DTD SVG 1.1//EN" "http://www.w3.org/Graphics/SVG/1.1/DTD/svg11.dtd"><svg xmlns="http://www.w3.org/2000/svg" xmlns:xlink="http://www.w3.org/1999/xlink" version="1.1" id="mdi-bug" width="24" height="24" viewBox="0 0 24 24"><path d="M14,12H10V10H14M14,16H10V14H14M20,8H17.19C16.74,7.22 16.12,6.55 15.37,6.04L17,4.41L15.59,3L13.42,5.17C12.96,5.06 12.5,5 12,5C11.5,5 11.04,5.06 10.59,5.17L8.41,3L7,4.41L8.62,6.04C7.88,6.55 7.26,7.22 6.81,8H4V10H6.09C6.04,10.33 6,10.66 6,11V12H4V14H6V15C6,15.34 6.04,15.67 6.09,16H4V18H6.81C7.85,19.79 9.78,21 12,21C14.22,21 16.15,19.79 17.19,18H20V16H17.91C17.96,15.67 18,15.34 18,15V14H20V12H18V11C18,10.66 17.96,10.33 17.91,10H20V8Z" /></svg>
